assets/svg/books.svg

<?xml version="1.0" encoding="utf-8"?>
<!-- Uploaded to: SVG Repo, www.svgrepo.com, Generator: SVG Repo Mixer Tools -->
<svg fill="#000000" width="800px" height="800px" viewBox="0 0 32 32" version="1.1" xmlns="http://www.w3.org/2000/svg">
<title>books</title>
<path d="M30.639 26.361l-6.211-23.183c-0.384-1.398-1.644-2.408-3.139-2.408-0.299 0-0.589 0.040-0.864 0.116l0.023-0.005-2.896 0.776c-0.23 0.065-0.429 0.145-0.618 0.243l0.018-0.008c-0.594-0.698-1.472-1.14-2.453-1.143h-2.999c-0.76 0.003-1.457 0.27-2.006 0.713l0.006-0.005c-0.543-0.438-1.24-0.705-1.999-0.708h-3.001c-1.794 0.002-3.248 1.456-3.25 3.25v24c0.002 1.794 1.456 3.248 3.25 3.25h3c0.76-0.003 1.457-0.269 2.006-0.712l-0.006 0.005c0.543 0.438 1.24 0.704 1.999 0.708h2.999c1.794-0.002 3.248-1.456 3.25-3.25v-13.053l3.717 13.873c0.382 1.398 1.641 2.408 3.136 2.408 0.3 0 0.59-0.041 0.866-0.117l-0.023 0.005 2.898-0.775c1.398-0.386 2.407-1.646 2.407-3.141 0-0.298-0.040-0.587-0.115-0.862l0.005 0.023zM19.026 10.061l4.346-1.165 3.494 13.042-4.345 1.164zM18.199 4.072l2.895-0.775c0.056-0.015 0.121-0.023 0.188-0.023 0.346 0 0.639 0.231 0.731 0.547l0.001 0.005 0.712 2.656-4.346 1.165-0.632-2.357v-0.848c0.094-0.179 0.254-0.312 0.446-0.37l0.005-0.001zM11.5 3.25h2.998c0.412 0.006 0.744 0.338 0.75 0.749v2.75l-4.498 0.001v-2.75c0.006-0.412 0.338-0.744 0.749-0.75h0.001zM8.25 22.75h-4.5v-13.5l4.5-0.001zM10.75 9.25l4.498-0.001v13.501h-4.498zM4.5 3.25h3c0.412 0.006 0.744 0.338 0.75 0.749v2.75l-4.5 0.001v-2.75c0.006-0.412 0.338-0.744 0.749-0.75h0.001zM7.5 28.75h-3c-0.412-0.006-0.744-0.338-0.75-0.749v-2.751h4.5v2.75c-0.006 0.412-0.338 0.744-0.749 0.75h-0.001zM14.498 28.75h-2.998c-0.412-0.006-0.744-0.338-0.75-0.749v-2.751h4.498v2.75c-0.006 0.412-0.338 0.744-0.749 0.75h-0.001zM27.693 27.928l-2.896 0.775c-0.057 0.015-0.122 0.024-0.189 0.024-0.139 0-0.269-0.037-0.381-0.102l0.004 0.002c-0.171-0.099-0.298-0.259-0.35-0.45l-0.001-0.005-0.711-2.655 4.345-1.164 0.712 2.657c0.015 0.056 0.023 0.12 0.023 0.186 0 0.347-0.232 0.639-0.549 0.73l-0.005 0.001z"></path>
</svg>

<svg xmlns="http://www.w3.org/2000/svg" width="800" height="800" viewBox="0 0 32 32">
    <title>books</title>
    <path
        d="M30.639 26.361 24.428 3.178A3.257 3.257 0 0 0 20.425.886l.023-.005-2.896.776c-.23.065-.429.145-.618.243l.018-.008A3.23 3.23 0 0 0 14.499.749H11.5c-.76.003-1.457.27-2.006.713l.006-.005A3.2 3.2 0 0 0 7.501.749H4.5a3.254 3.254 0 0 0-3.25 3.25v24a3.254 3.254 0 0 0 3.25 3.25h3a3.2 3.2 0 0 0 2.006-.712l-.006.005c.543.438 1.24.704 1.999.708h2.999a3.254 3.254 0 0 0 3.25-3.25V14.947l3.717 13.873a3.25 3.25 0 0 0 4.002 2.291l-.023.005 2.898-.775a3.26 3.26 0 0 0 2.292-4.003zm-11.613-16.3 4.346-1.165 3.494 13.042-4.345 1.164zm-.827-5.989 2.895-.775a.762.762 0 0 1 .919.524l.001.005.712 2.656-4.346 1.165-.632-2.357v-.848a.75.75 0 0 1 .446-.37l.005-.001zM11.5 3.25h2.998a.76.76 0 0 1 .75.749v2.75l-4.498.001V4a.76.76 0 0 1 .749-.75zm-3.25 19.5h-4.5V9.25l4.5-.001zm2.5-13.5 4.498-.001V22.75H10.75zm-6.25-6h3a.76.76 0 0 1 .75.749v2.75l-4.5.001V4a.76.76 0 0 1 .749-.75zm3 25.5h-3a.76.76 0 0 1-.75-.749V25.25h4.5V28a.76.76 0 0 1-.749.75zm6.998 0H11.5a.76.76 0 0 1-.75-.749V25.25h4.498V28a.76.76 0 0 1-.749.75zm13.195-.822-2.896.775a.75.75 0 0 1-.57-.078l.004.002a.75.75 0 0 1-.35-.45l-.001-.005-.711-2.655 4.345-1.164.712 2.657q.023.086.023.186a.76.76 0 0 1-.549.73l-.005.001z" />
</svg>
